X: 240
T: You Have Relied Upon Me
C: Teton Sioux band 1911-1914
N: Derived from sioux235.krn
O: South Dakota, U.S.A.
N: Teton Sioux Music by Frances Densmore, 1918
Z: transcribed to **kern format by Craig Sapp
L: 1/8
M: 3/4
Q: 1/4=58
K: Bb clef=bass
%%linebreak <none>
G GG2G3/ D/ [I:setbarnb 1]||  
[M:2/4]G GG2 | 
G< D D C | 
C B, B, B, ||  
[M:3/4]B,6 | 
B,/ B,/ D D D D3/ ^C/ | 
D< D D/> B,/ B, ^C B,3// B,// ||  
[M:2/4]G,2G, G, ||  
[M:3/4]G,6 | 
B, C C B,B,2 ||  
[M:2/4]G,< B, C B, | 
B,< G, G, G, | 
G,4 | 
G,3G, | 
G, G G G | 
G3D | 
G GG2 | 
G< D D C | 
D/ B, C/B,2 ||  
[M:3/4]B, B,/ B,/ B,< G, G, G, | 
G,6 | 
B, B, C CB,2 | 
B, B,/ B,/ G, B, C B, ||  
[M:2/4]B,< G, G, G, | 
G,4 | 
G,4 |]  



